lib/assets/svg/button/he_add_to_google_wallet_wallet-button.svg

<svg fill="none" height="50" viewBox="0 0 310 50" width="310" xmlns="http://www.w3.org/2000/svg" xmlns:xlink="http://www.w3.org/1999/xlink"><linearGradient id="a" gradientUnits="userSpaceOnUse" x1="34.5703" x2="18.7309" y1="30.7864" y2="48.9133"><stop offset="0" stop-color="#4285f4"/><stop offset="1" stop-color="#1b74e8"/></linearGradient><rect fill="#1f1f1f" height="49" rx="24.5" width="309" x=".5" y=".5"/><path d="m51 22h-30v-5c0-2.7143 2.2018-5 4.8165-5h20.367c2.6147 0 4.8165 2.2857 4.8165 5z" fill="#34a853"/><path d="m51 26.0537h-30v-5c0-2.7143 2.2018-5 4.8165-5h20.367c2.6147 0 4.8165 2.2857 4.8165 5z" fill="#fbbc04"/><path d="m51 30.2468h-30v-5c0-2.7143 2.2018-5 4.8165-5h20.367c2.6147 0 4.8165 2.2857 4.8165 5z" fill="#ea4335"/><path d="m21 23.2752 19.0411 4.4037c2.1918.5505 4.6575 0 6.4384-1.3761l4.5205-3.3028v10.3211c0 2.6147-2.1918 4.6789-4.7945 4.6789h-20.411c-2.6027 0-4.7945-2.0642-4.7945-4.6789z" fill="url(#a)"/><path d="m67.56 32 3.66-10.1h-7.24v-5.7h2.38v3.56h7.34v2.14l-3.62 10.1zm8.0625 0v-2.84c0-1.2133.2667-2.2133.8-3 .5467-.7867 1.3467-1.3733 2.4-1.76l-3.46-4.52v-.12h2.68l4.24 5.72c.7067-.2667 1.2133-.6333 1.52-1.1.3067-.48.46-1.18.46-2.1v-2.52h2.38v2.56c0 1.3467-.28 2.3733-.84 3.08-.56.6933-1.32 1.2267-2.28 1.6l3.68 4.88v.12h-2.68l-4.42-6.06c-.8133.2533-1.3667.64-1.66 1.16-.2933.5067-.44 1.1667-.44 1.98v2.92zm27.0455 0v-6.6c0-.8667-.113-1.5533-.34-2.06-.213-.52-.567-.8867-1.06-1.1-.493-.2267-1.167-.34-2.02-.34h-5.12v-2.14h5.12c2.04 0 3.513.4733 4.42 1.42s1.36 2.3533 1.36 4.22v6.6zm-8.54 0v-6.76h2.38v6.76zm14.072 0v-2.14h3.66c1.4 0 2.473-.3733 3.22-1.12.76-.7467 1.14-1.7467 1.14-3 0-.8533-.167-1.5933-.5-2.22-.32-.64-.767-1.1267-1.34-1.46-.56-.3467-1.213-.52-1.96-.52-.507 0-.947.06-1.32.18-.36.1067-.66.2533-.9.44-.227.2-.4.4267-.52.68-.107.2533-.16.5133-.16.78 0 .5467.173.9733.52 1.28s.847.46 1.5.46h.62v1.98h-.68c-1.4 0-2.467-.34-3.2-1.02s-1.1-1.5733-1.1-2.68c0-.6267.127-1.1933.38-1.7.253-.52.613-.9667 1.08-1.34.453-.3733 1-.66 1.64-.86.653-.2133 1.367-.32 2.14-.32 1.227 0 2.293.28 3.2.84.92.5467 1.633 1.3 2.14 2.26.507.9467.76 2.02.76 3.22 0 1.1867-.267 2.2533-.8 3.2s-1.3 1.6933-2.3 2.24c-.987.5467-2.173.82-3.56.82zm18.365.32c-.92 0-1.767-.1667-2.54-.5s-1.447-.7933-2.02-1.38c-.573-.6-1.02-1.2867-1.34-2.06-.32-.7867-.48-1.6267-.48-2.52 0-.8533.153-1.6733.46-2.46.307-.8.76-1.5 1.36-2.1.573-.5867 1.247-1.0467 2.02-1.38s1.62-.5 2.54-.5 1.767.1667 2.54.5c.787.3333 1.467.7933 2.04 1.38.587.5867 1.04 1.2733 1.36 2.06.32.7733.48 1.6067.48 2.5s-.16 1.7333-.48 2.52c-.32.7733-.773 1.46-1.36 2.06-.573.5867-1.253 1.0467-2.04 1.38-.773.3333-1.62.5-2.54.5zm0-2.14c.76 0 1.447-.18 2.06-.54.627-.3733 1.12-.8867 1.48-1.54.373-.6533.56-1.4.56-2.24s-.187-1.58-.56-2.22c-.36-.6533-.853-1.16-1.48-1.52-.613-.3733-1.3-.56-2.06-.56-.573 0-1.107.1067-1.6.32-.493.2-.927.4933-1.3.88-.387.4-.68.8733-.88 1.42-.2.5333-.3 1.0933-.3 1.68 0 .84.18 1.5867.54 2.24.373.6533.867 1.1667 1.48 1.54.613.36 1.3.54 2.06.54zm8.698 1.82v-12.24h2.38v12.24zm13.948 0v-6.6c0-.8667-.113-1.5533-.34-2.06-.213-.52-.567-.8867-1.06-1.1-.493-.2267-1.167-.34-2.02-.34h-5.12v-2.14h5.12c2.04 0 3.513.4733 4.42 1.42s1.36 2.3533 1.36 4.22v6.6zm-8.54 0v-6.76h2.38v6.76z" fill="#fff"/><path d="m166.4 32.32c-1.027 0-1.993-.1867-2.9-.56-.893-.3733-1.687-.8933-2.38-1.56-.693-.68-1.24-1.4733-1.64-2.38-.387-.92-.58-1.9133-.58-2.98s.193-2.0533.58-2.96c.4-.92.94-1.7133 1.62-2.38.693-.68 1.493-1.2067 2.4-1.58s1.873-.56 2.9-.56c1.093 0 2.1.1933 3.02.58.933.3867 1.713.9267 2.34 1.62l-1.52 1.5c-.467-.52-1.027-.92-1.68-1.2-.64-.28-1.36-.42-2.16-.42-.947 0-1.82.2267-2.62.68-.8.44-1.447 1.0667-1.94 1.88-.48.8-.72 1.7467-.72 2.84s.247 2.0467.74 2.86c.493.8 1.14 1.4267 1.94 1.88.8.44 1.673.66 2.62.66.867 0 1.653-.16 2.36-.48.707-.3333 1.273-.8 1.7-1.4.44-.6.707-1.32.8-2.16h-4.9v-1.94h6.96c.08.36.12.74.12 1.14v.02c0 1.3867-.307 2.6-.92 3.64-.6 1.0267-1.433 1.8267-2.5 2.4s-2.28.86-3.64.86zm13.5 0c-1.053 0-1.98-.24-2.78-.72s-1.427-1.1267-1.88-1.94-.68-1.7333-.68-2.76c0-1.0133.227-1.9267.68-2.74.453-.8267 1.08-1.48 1.88-1.96s1.727-.72 2.78-.72c1.04 0 1.96.24 2.76.72s1.427 1.1333 1.88 1.96c.453.8133.68 1.7267.68 2.74 0 1.0267-.227 1.9467-.68 2.76s-1.08 1.46-1.88 1.94-1.72.72-2.76.72zm0-1.98c.56 0 1.08-.1333 1.56-.4.48-.28.867-.6733 1.16-1.18.307-.52.46-1.14.46-1.86s-.153-1.3333-.46-1.84c-.293-.52-.68-.9133-1.16-1.18-.48-.28-1-.42-1.56-.42s-1.087.14-1.58.42c-.48.2667-.873.66-1.18 1.18-.293.5067-.44 1.12-.44 1.84s.147 1.34.44 1.86c.307.5067.7.9 1.18 1.18.493.2667 1.02.4 1.58.4zm12.109 1.98c-1.053 0-1.98-.24-2.78-.72s-1.426-1.1267-1.88-1.94c-.453-.8133-.68-1.7333-.68-2.76 0-1.0133.227-1.9267.68-2.74.454-.8267 1.08-1.48 1.88-1.96s1.727-.72 2.78-.72c1.04 0 1.96.24 2.76.72s1.427 1.1333 1.88 1.96c.454.8133.68 1.7267.68 2.74 0 1.0267-.226 1.9467-.68 2.76-.453.8133-1.08 1.46-1.88 1.94s-1.72.72-2.76.72zm0-1.98c.56 0 1.08-.1333 1.56-.4.48-.28.867-.6733 1.16-1.18.307-.52.46-1.14.46-1.86s-.153-1.3333-.46-1.84c-.293-.52-.68-.9133-1.16-1.18-.48-.28-1-.42-1.56-.42s-1.086.14-1.58.42c-.48.2667-.873.66-1.18 1.18-.293.5067-.44 1.12-.44 1.84s.147 1.34.44 1.86c.307.5067.7.9 1.18 1.18.494.2667 1.02.4 1.58.4zm11.91 6.3c-.894 0-1.667-.1467-2.32-.44-.64-.28-1.16-.6467-1.56-1.1-.4-.44-.687-.8933-.86-1.36l2-.84c.213.5333.553.9667 1.02 1.3.48.3467 1.053.52 1.72.52.933 0 1.666-.28 2.2-.84.546-.56.82-1.3533.82-2.38v-.98h-.12c-.32.48-.767.8667-1.34 1.16-.56.28-1.2.42-1.92.42-.867 0-1.66-.22-2.38-.66s-1.3-1.0533-1.74-1.84c-.44-.8-.66-1.7333-.66-2.8 0-1.08.22-2.0133.66-2.8.44-.8 1.02-1.42 1.74-1.86s1.513-.66 2.38-.66c.72 0 1.36.1467 1.92.44.573.2933 1.02.68 1.34 1.16h.12v-1.28h2.06v9.66c0 1.1067-.22 2.0467-.66 2.82-.427.7733-1.02 1.36-1.78 1.76s-1.64.6-2.64.6zm.02-6.5c.533 0 1.026-.1267 1.48-.38.453-.2667.82-.6467 1.1-1.14.28-.5067.42-1.1133.42-1.82 0-.7333-.14-1.3467-.42-1.84-.28-.5067-.647-.8867-1.1-1.14-.454-.2533-.947-.38-1.48-.38-.534 0-1.034.1333-1.5.4-.454.2533-.82.6267-1.1 1.12s-.42 1.1067-.42 1.84c0 .72.14 1.3333.42 1.84.28.4933.646.8667 1.1 1.12.466.2533.966.38 1.5.38zm7.607 1.86v-14.32h2.16v14.32zm9.269.32c-1 0-1.894-.2333-2.68-.7-.787-.4667-1.407-1.1067-1.86-1.92-.44-.8133-.66-1.74-.66-2.78 0-.9733.213-1.8733.64-2.7.426-.8267 1.02-1.4867 1.78-1.98.773-.5067 1.66-.76 2.66-.76 1.053 0 1.946.2267 2.68.68.746.4533 1.313 1.0733 1.7 1.86.386.7867.58 1.6733.58 2.66 0 .1467-.007.28-.02.4 0 .12-.007.2133-.02.28h-7.88c.106 1.0133.46 1.7733 1.06 2.28.613.5067 1.306.76 2.08.76.693 0 1.266-.1533 1.72-.46.453-.32.813-.7133 1.08-1.18l1.78.86c-.44.8-1.04 1.4533-1.8 1.96-.76.4933-1.707.74-2.84.74zm-.1-9c-.72 0-1.334.22-1.84.66-.507.44-.847 1.0267-1.02 1.76h5.66c-.027-.3467-.14-.7067-.34-1.08s-.507-.6867-.92-.94c-.4-.2667-.914-.4-1.54-.4zm13.731 8.68-3.84-14.32h2.44l2.28 9.3.24 1.24h.12l.3-1.24 2.88-9.3h2.2l2.76 9.3.3 1.22h.12l.24-1.22 2.28-9.3h2.42l-3.78 14.32h-2.32l-2.74-9.5-.32-1.34h-.12l-.34 1.34-2.86 9.5zm18.756.32c-.733 0-1.386-.14-1.96-.42-.573-.2933-1.02-.7-1.34-1.22s-.48-1.1133-.48-1.78c0-.72.187-1.3333.56-1.84.387-.52.9-.9133 1.54-1.18s1.347-.4 2.12-.4c.64 0 1.2.06 1.68.18.494.12.867.2467 1.12.38v-.54c0-.6667-.24-1.2-.72-1.6s-1.1-.6-1.86-.6c-.52 0-1.013.12-1.48.36-.466.2267-.84.54-1.12.94l-1.48-1.14c.44-.6133 1.02-1.0933 1.74-1.44.734-.36 1.534-.54 2.4-.54 1.48 0 2.62.3667 3.42 1.1.8.72 1.2 1.7333 1.2 3.04v6.38h-2.1v-1.26h-.12c-.266.4133-.666.78-1.2 1.1-.533.32-1.173.48-1.92.48zm.38-1.76c.56 0 1.054-.1333 1.48-.4.427-.2667.76-.6133 1-1.04.254-.44.38-.9133.38-1.42-.306-.1733-.666-.3133-1.08-.42-.413-.12-.853-.18-1.32-.18-.88 0-1.506.18-1.88.54-.373.3467-.56.7733-.56 1.28 0 .48.18.8733.54 1.18s.84.46 1.44.46zm7.358 1.44v-14.32h2.16v14.32zm4.727 0v-14.32h2.16v14.32zm9.269.32c-1 0-1.894-.2333-2.68-.7-.787-.4667-1.407-1.1067-1.86-1.92-.44-.8133-.66-1.74-.66-2.78 0-.9733.213-1.8733.64-2.7.426-.8267 1.02-1.4867 1.78-1.98.773-.5067 1.66-.76 2.66-.76 1.053 0 1.946.2267 2.68.68.746.4533 1.313 1.0733 1.7 1.86.386.7867.58 1.6733.58 2.66 0 .1467-.007.28-.02.4 0 .12-.007.2133-.02.28h-7.88c.106 1.0133.46 1.7733 1.06 2.28.613.5067 1.306.76 2.08.76.693 0 1.266-.1533 1.72-.46.453-.32.813-.7133 1.08-1.18l1.78.86c-.44.8-1.04 1.4533-1.8 1.96-.76.4933-1.707.74-2.84.74zm-.1-9c-.72 0-1.334.22-1.84.66-.507.44-.847 1.0267-1.02 1.76h5.66c-.027-.3467-.14-.7067-.34-1.08s-.507-.6867-.92-.94c-.4-.2667-.914-.4-1.54-.4zm7.731 5.72v-5.36h-1.78v-1.88h1.78v-2.88h2.16v2.88h2.5v1.88h-2.5v4.9c0 .5067.1.8933.3 1.16.213.2667.566.4 1.06.4.253 0 .466-.0333.64-.1.186-.0667.373-.16.56-.28v2.1c-.227.0933-.467.1667-.72.22-.254.0533-.554.08-.9.08-.947 0-1.7-.2733-2.26-.82-.56-.56-.84-1.3267-.84-2.3z" fill="#fff"/><rect height="49" rx="24.5" stroke="#747775" width="309" x=".5" y=".5"/></svg>

<svg width="310" height="50" viewBox="0 0 310 50" fill="none" xmlns="http://www.w3.org/2000/svg">
<rect x="0.5" y="0.5" width="309" height="49" rx="24.5" fill="#1F1F1F"/>
<path d="M51 22H21V17C21 14.2857 23.2018 12 25.8165 12H46.1835C48.7982 12 51 14.2857 51 17V22Z" fill="#34A853"/>
<path d="M51 26.0537H21V21.0537C21 18.3394 23.2018 16.0537 25.8165 16.0537H46.1835C48.7982 16.0537 51 18.3394 51 21.0537V26.0537Z" fill="#FBBC04"/>
<path d="M51 30.2468H21V25.2468C21 22.5325 23.2018 20.2468 25.8165 20.2468H46.1835C48.7982 20.2468 51 22.5325 51 25.2468V30.2468Z" fill="#EA4335"/>
<path d="M21 23.2752L40.0411 27.6789C42.2329 28.2294 44.6986 27.6789 46.4795 26.3028L51 23V33.3211C51 35.9358 48.8082 38 46.2055 38H25.7945C23.1918 38 21 35.9358 21 33.3211V23.2752Z" fill="url(#paint0_linear_1819_24367)"/>
<path d="M67.56 32L71.22 21.9H63.98V16.2H66.36V19.76H73.7V21.9L70.08 32H67.56ZM75.6225 32V29.16C75.6225 27.9467 75.8892 26.9467 76.4225 26.16C76.9692 25.3733 77.7692 24.7867 78.8225 24.4L75.3625 19.88V19.76H78.0425L82.2825 25.48C82.9892 25.2133 83.4958 24.8467 83.8025 24.38C84.1092 23.9 84.2625 23.2 84.2625 22.28V19.76H86.6425V22.32C86.6425 23.6667 86.3625 24.6933 85.8025 25.4C85.2425 26.0933 84.4825 26.6267 83.5225 27L87.2025 31.88V32H84.5225L80.1025 25.94C79.2892 26.1933 78.7358 26.58 78.4425 27.1C78.1492 27.6067 78.0025 28.2667 78.0025 29.08V32H75.6225ZM102.668 32V25.4C102.668 24.5333 102.555 23.8467 102.328 23.34C102.115 22.82 101.761 22.4533 101.268 22.24C100.775 22.0133 100.101 21.9 99.248 21.9H94.128V19.76H99.248C101.288 19.76 102.761 20.2333 103.668 21.18C104.575 22.1267 105.028 23.5333 105.028 25.4V32H102.668ZM94.128 32V25.24H96.508V32H94.128ZM108.2 32V29.86H111.86C113.26 29.86 114.333 29.4867 115.08 28.74C115.84 27.9933 116.22 26.9933 116.22 25.74C116.22 24.8867 116.053 24.1467 115.72 23.52C115.4 22.88 114.953 22.3933 114.38 22.06C113.82 21.7133 113.167 21.54 112.42 21.54C111.913 21.54 111.473 21.6 111.1 21.72C110.74 21.8267 110.44 21.9733 110.2 22.16C109.973 22.36 109.8 22.5867 109.68 22.84C109.573 23.0933 109.52 23.3533 109.52 23.62C109.52 24.1667 109.693 24.5933 110.04 24.9C110.387 25.2067 110.887 25.36 111.54 25.36H112.16V27.34H111.48C110.08 27.34 109.013 27 108.28 26.32C107.547 25.64 107.18 24.7467 107.18 23.64C107.18 23.0133 107.307 22.4467 107.56 21.94C107.813 21.42 108.173 20.9733 108.64 20.6C109.093 20.2267 109.64 19.94 110.28 19.74C110.933 19.5267 111.647 19.42 112.42 19.42C113.647 19.42 114.713 19.7 115.62 20.26C116.54 20.8067 117.253 21.56 117.76 22.52C118.267 23.4667 118.52 24.54 118.52 25.74C118.52 26.9267 118.253 27.9933 117.72 28.94C117.187 29.8867 116.42 30.6333 115.42 31.18C114.433 31.7267 113.247 32 111.86 32H108.2ZM126.565 32.32C125.645 32.32 124.798 32.1533 124.025 31.82C123.252 31.4867 122.578 31.0267 122.005 30.44C121.432 29.84 120.985 29.1533 120.665 28.38C120.345 27.5933 120.185 26.7533 120.185 25.86C120.185 25.0067 120.338 24.1867 120.645 23.4C120.952 22.6 121.405 21.9 122.005 21.3C122.578 20.7133 123.252 20.2533 124.025 19.92C124.798 19.5867 125.645 19.42 126.565 19.42C127.485 19.42 128.332 19.5867 129.105 19.92C129.892 20.2533 130.572 20.7133 131.145 21.3C131.732 21.8867 132.185 22.5733 132.505 23.36C132.825 24.1333 132.985 24.9667 132.985 25.86C132.985 26.7533 132.825 27.5933 132.505 28.38C132.185 29.1533 131.732 29.84 131.145 30.44C130.572 31.0267 129.892 31.4867 129.105 31.82C128.332 32.1533 127.485 32.32 126.565 32.32ZM126.565 30.18C127.325 30.18 128.012 30 128.625 29.64C129.252 29.2667 129.745 28.7533 130.105 28.1C130.478 27.4467 130.665 26.7 130.665 25.86C130.665 25.02 130.478 24.28 130.105 23.64C129.745 22.9867 129.252 22.48 128.625 22.12C128.012 21.7467 127.325 21.56 126.565 21.56C125.992 21.56 125.458 21.6667 124.965 21.88C124.472 22.08 124.038 22.3733 123.665 22.76C123.278 23.16 122.985 23.6333 122.785 24.18C122.585 24.7133 122.485 25.2733 122.485 25.86C122.485 26.7 122.665 27.4467 123.025 28.1C123.398 28.7533 123.892 29.2667 124.505 29.64C125.118 30 125.805 30.18 126.565 30.18ZM135.263 32V19.76H137.643V32H135.263ZM149.211 32V25.4C149.211 24.5333 149.098 23.8467 148.871 23.34C148.658 22.82 148.304 22.4533 147.811 22.24C147.318 22.0133 146.644 21.9 145.791 21.9H140.671V19.76H145.791C147.831 19.76 149.304 20.2333 150.211 21.18C151.118 22.1267 151.571 23.5333 151.571 25.4V32H149.211ZM140.671 32V25.24H143.051V32H140.671Z" fill="white"/>
<path d="M166.4 32.32C165.373 32.32 164.407 32.1333 163.5 31.76C162.607 31.3867 161.813 30.8667 161.12 30.2C160.427 29.52 159.88 28.7267 159.48 27.82C159.093 26.9 158.9 25.9067 158.9 24.84C158.9 23.7733 159.093 22.7867 159.48 21.88C159.88 20.96 160.42 20.1667 161.1 19.5C161.793 18.82 162.593 18.2933 163.5 17.92C164.407 17.5467 165.373 17.36 166.4 17.36C167.493 17.36 168.5 17.5533 169.42 17.94C170.353 18.3267 171.133 18.8667 171.76 19.56L170.24 21.06C169.773 20.54 169.213 20.14 168.56 19.86C167.92 19.58 167.2 19.44 166.4 19.44C165.453 19.44 164.58 19.6667 163.78 20.12C162.98 20.56 162.333 21.1867 161.84 22C161.36 22.8 161.12 23.7467 161.12 24.84C161.12 25.9333 161.367 26.8867 161.86 27.7C162.353 28.5 163 29.1267 163.8 29.58C164.6 30.02 165.473 30.24 166.42 30.24C167.287 30.24 168.073 30.08 168.78 29.76C169.487 29.4267 170.053 28.96 170.48 28.36C170.92 27.76 171.187 27.04 171.28 26.2H166.38V24.26H173.34C173.42 24.62 173.46 25 173.46 25.4V25.42C173.46 26.8067 173.153 28.02 172.54 29.06C171.94 30.0867 171.107 30.8867 170.04 31.46C168.973 32.0333 167.76 32.32 166.4 32.32ZM179.9 32.32C178.847 32.32 177.92 32.08 177.12 31.6C176.32 31.12 175.693 30.4733 175.24 29.66C174.787 28.8467 174.56 27.9267 174.56 26.9C174.56 25.8867 174.787 24.9733 175.24 24.16C175.693 23.3333 176.32 22.68 177.12 22.2C177.92 21.72 178.847 21.48 179.9 21.48C180.94 21.48 181.86 21.72 182.66 22.2C183.46 22.68 184.087 23.3333 184.54 24.16C184.993 24.9733 185.22 25.8867 185.22 26.9C185.22 27.9267 184.993 28.8467 184.54 29.66C184.087 30.4733 183.46 31.12 182.66 31.6C181.86 32.08 180.94 32.32 179.9 32.32ZM179.9 30.34C180.46 30.34 180.98 30.2067 181.46 29.94C181.94 29.66 182.327 29.2667 182.62 28.76C182.927 28.24 183.08 27.62 183.08 26.9C183.08 26.18 182.927 25.5667 182.62 25.06C182.327 24.54 181.94 24.1467 181.46 23.88C180.98 23.6 180.46 23.46 179.9 23.46C179.34 23.46 178.813 23.6 178.32 23.88C177.84 24.1467 177.447 24.54 177.14 25.06C176.847 25.5667 176.7 26.18 176.7 26.9C176.7 27.62 176.847 28.24 177.14 28.76C177.447 29.2667 177.84 29.66 178.32 29.94C178.813 30.2067 179.34 30.34 179.9 30.34ZM192.009 32.32C190.956 32.32 190.029 32.08 189.229 31.6C188.429 31.12 187.803 30.4733 187.349 29.66C186.896 28.8467 186.669 27.9267 186.669 26.9C186.669 25.8867 186.896 24.9733 187.349 24.16C187.803 23.3333 188.429 22.68 189.229 22.2C190.029 21.72 190.956 21.48 192.009 21.48C193.049 21.48 193.969 21.72 194.769 22.2C195.569 22.68 196.196 23.3333 196.649 24.16C197.103 24.9733 197.329 25.8867 197.329 26.9C197.329 27.9267 197.103 28.8467 196.649 29.66C196.196 30.4733 195.569 31.12 194.769 31.6C193.969 32.08 193.049 32.32 192.009 32.32ZM192.009 30.34C192.569 30.34 193.089 30.2067 193.569 29.94C194.049 29.66 194.436 29.2667 194.729 28.76C195.036 28.24 195.189 27.62 195.189 26.9C195.189 26.18 195.036 25.5667 194.729 25.06C194.436 24.54 194.049 24.1467 193.569 23.88C193.089 23.6 192.569 23.46 192.009 23.46C191.449 23.46 190.923 23.6 190.429 23.88C189.949 24.1467 189.556 24.54 189.249 25.06C188.956 25.5667 188.809 26.18 188.809 26.9C188.809 27.62 188.956 28.24 189.249 28.76C189.556 29.2667 189.949 29.66 190.429 29.94C190.923 30.2067 191.449 30.34 192.009 30.34ZM203.919 36.64C203.025 36.64 202.252 36.4933 201.599 36.2C200.959 35.92 200.439 35.5533 200.039 35.1C199.639 34.66 199.352 34.2067 199.179 33.74L201.179 32.9C201.392 33.4333 201.732 33.8667 202.199 34.2C202.679 34.5467 203.252 34.72 203.919 34.72C204.852 34.72 205.585 34.44 206.119 33.88C206.665 33.32 206.939 32.5267 206.939 31.5V30.52H206.819C206.499 31 206.052 31.3867 205.479 31.68C204.919 31.96 204.279 32.1 203.559 32.1C202.692 32.1 201.899 31.88 201.179 31.44C200.459 31 199.879 30.3867 199.439 29.6C198.999 28.8 198.779 27.8667 198.779 26.8C198.779 25.72 198.999 24.7867 199.439 24C199.879 23.2 200.459 22.58 201.179 22.14C201.899 21.7 202.692 21.48 203.559 21.48C204.279 21.48 204.919 21.6267 205.479 21.92C206.052 22.2133 206.499 22.6 206.819 23.08H206.939V21.8H208.999V31.46C208.999 32.5667 208.779 33.5067 208.339 34.28C207.912 35.0533 207.319 35.64 206.559 36.04C205.799 36.44 204.919 36.64 203.919 36.64ZM203.939 30.14C204.472 30.14 204.965 30.0133 205.419 29.76C205.872 29.4933 206.239 29.1133 206.519 28.62C206.799 28.1133 206.939 27.5067 206.939 26.8C206.939 26.0667 206.799 25.4533 206.519 24.96C206.239 24.4533 205.872 24.0733 205.419 23.82C204.965 23.5667 204.472 23.44 203.939 23.44C203.405 23.44 202.905 23.5733 202.439 23.84C201.985 24.0933 201.619 24.4667 201.339 24.96C201.059 25.4533 200.919 26.0667 200.919 26.8C200.919 27.52 201.059 28.1333 201.339 28.64C201.619 29.1333 201.985 29.5067 202.439 29.76C202.905 30.0133 203.405 30.14 203.939 30.14ZM211.546 32V17.68H213.706V32H211.546ZM220.815 32.32C219.815 32.32 218.921 32.0867 218.135 31.62C217.348 31.1533 216.728 30.5133 216.275 29.7C215.835 28.8867 215.615 27.96 215.615 26.92C215.615 25.9467 215.828 25.0467 216.255 24.22C216.681 23.3933 217.275 22.7333 218.035 22.24C218.808 21.7333 219.695 21.48 220.695 21.48C221.748 21.48 222.641 21.7067 223.375 22.16C224.121 22.6133 224.688 23.2333 225.075 24.02C225.461 24.8067 225.655 25.6933 225.655 26.68C225.655 26.8267 225.648 26.96 225.635 27.08C225.635 27.2 225.628 27.2933 225.615 27.36H217.735C217.841 28.3733 218.195 29.1333 218.795 29.64C219.408 30.1467 220.101 30.4 220.875 30.4C221.568 30.4 222.141 30.2467 222.595 29.94C223.048 29.62 223.408 29.2267 223.675 28.76L225.455 29.62C225.015 30.42 224.415 31.0733 223.655 31.58C222.895 32.0733 221.948 32.32 220.815 32.32ZM220.715 23.32C219.995 23.32 219.381 23.54 218.875 23.98C218.368 24.42 218.028 25.0067 217.855 25.74H223.515C223.488 25.3933 223.375 25.0333 223.175 24.66C222.975 24.2867 222.668 23.9733 222.255 23.72C221.855 23.4533 221.341 23.32 220.715 23.32ZM234.446 32L230.606 17.68H233.046L235.326 26.98L235.566 28.22H235.686L235.986 26.98L238.866 17.68H241.066L243.826 26.98L244.126 28.2H244.246L244.486 26.98L246.766 17.68H249.186L245.406 32H243.086L240.346 22.5L240.026 21.16H239.906L239.566 22.5L236.706 32H234.446ZM253.202 32.32C252.469 32.32 251.816 32.18 251.242 31.9C250.669 31.6067 250.222 31.2 249.902 30.68C249.582 30.16 249.422 29.5667 249.422 28.9C249.422 28.18 249.609 27.5667 249.982 27.06C250.369 26.54 250.882 26.1467 251.522 25.88C252.162 25.6133 252.869 25.48 253.642 25.48C254.282 25.48 254.842 25.54 255.322 25.66C255.816 25.78 256.189 25.9067 256.442 26.04V25.5C256.442 24.8333 256.202 24.3 255.722 23.9C255.242 23.5 254.622 23.3 253.862 23.3C253.342 23.3 252.849 23.42 252.382 23.66C251.916 23.8867 251.542 24.2 251.262 24.6L249.782 23.46C250.222 22.8467 250.802 22.3667 251.522 22.02C252.256 21.66 253.056 21.48 253.922 21.48C255.402 21.48 256.542 21.8467 257.342 22.58C258.142 23.3 258.542 24.3133 258.542 25.62V32H256.442V30.74H256.322C256.056 31.1533 255.656 31.52 255.122 31.84C254.589 32.16 253.949 32.32 253.202 32.32ZM253.582 30.56C254.142 30.56 254.636 30.4267 255.062 30.16C255.489 29.8933 255.822 29.5467 256.062 29.12C256.316 28.68 256.442 28.2067 256.442 27.7C256.136 27.5267 255.776 27.3867 255.362 27.28C254.949 27.16 254.509 27.1 254.042 27.1C253.162 27.1 252.536 27.28 252.162 27.64C251.789 27.9867 251.602 28.4133 251.602 28.92C251.602 29.4 251.782 29.7933 252.142 30.1C252.502 30.4067 252.982 30.56 253.582 30.56ZM260.94 32V17.68H263.1V32H260.94ZM265.667 32V17.68H267.827V32H265.667ZM274.936 32.32C273.936 32.32 273.042 32.0867 272.256 31.62C271.469 31.1533 270.849 30.5133 270.396 29.7C269.956 28.8867 269.736 27.96 269.736 26.92C269.736 25.9467 269.949 25.0467 270.376 24.22C270.802 23.3933 271.396 22.7333 272.156 22.24C272.929 21.7333 273.816 21.48 274.816 21.48C275.869 21.48 276.762 21.7067 277.496 22.16C278.242 22.6133 278.809 23.2333 279.196 24.02C279.582 24.8067 279.776 25.6933 279.776 26.68C279.776 26.8267 279.769 26.96 279.756 27.08C279.756 27.2 279.749 27.2933 279.736 27.36H271.856C271.962 28.3733 272.316 29.1333 272.916 29.64C273.529 30.1467 274.222 30.4 274.996 30.4C275.689 30.4 276.262 30.2467 276.716 29.94C277.169 29.62 277.529 29.2267 277.796 28.76L279.576 29.62C279.136 30.42 278.536 31.0733 277.776 31.58C277.016 32.0733 276.069 32.32 274.936 32.32ZM274.836 23.32C274.116 23.32 273.502 23.54 272.996 23.98C272.489 24.42 272.149 25.0067 271.976 25.74H277.636C277.609 25.3933 277.496 25.0333 277.296 24.66C277.096 24.2867 276.789 23.9733 276.376 23.72C275.976 23.4533 275.462 23.32 274.836 23.32ZM282.567 29.04V23.68H280.787V21.8H282.567V18.92H284.727V21.8H287.227V23.68H284.727V28.58C284.727 29.0867 284.827 29.4733 285.027 29.74C285.24 30.0067 285.593 30.14 286.087 30.14C286.34 30.14 286.553 30.1067 286.727 30.04C286.913 29.9733 287.1 29.88 287.287 29.76V31.86C287.06 31.9533 286.82 32.0267 286.567 32.08C286.313 32.1333 286.013 32.16 285.667 32.16C284.72 32.16 283.967 31.8867 283.407 31.34C282.847 30.78 282.567 30.0133 282.567 29.04Z" fill="white"/>
<rect x="0.5" y="0.5" width="309" height="49" rx="24.5" stroke="#747775"/>
<defs>
<linearGradient id="paint0_linear_1819_24367" x1="34.5703" y1="30.7864" x2="18.7309" y2="48.9133" gradientUnits="userSpaceOnUse">
<stop stop-color="#4285F4"/>
<stop offset="1" stop-color="#1B74E8"/>
</linearGradient>
</defs>
</svg>
